wrestling/_inc/system.svg

<svg viewBox="0 0 200 40" xmlns="http://www.w3.org/2000/svg"><path d="m50.06 20.92 3.21-10.47h5.97l-6.09 18.75h-7.56v-6.9h-.33l-2.49 6.9h-6.93v-18.75h5.97l-.54 10.47h.18l3.9-10.47h4.53v10.47zm21.78 2.04 1.98 6.24h-6.27l-1.38-5.58h-1.23l-.96 5.58h-5.7l3.3-18.75h9c3.42 0 5.13 1.53 5.13 4.59 0 1.26-.19 2.46-.57 3.6-.7 2.16-1.8 3.6-3.3 4.32zm-4.29-7.71h-1.14l-.66 3.75h1.32c.68 0 1.193-.073 1.54-.22.353-.153.593-.583.72-1.29.133-.713.2-1.15.2-1.31 0-.4-.153-.657-.46-.77-.313-.107-.82-.16-1.52-.16zm22.11 2.52-.78 4.35h-5.7l-.39 2.28h6.99l-.84 4.8h-12.69l3.3-18.75h12.54l-1.56 4.8h-6.15l-.42 2.52zm1.95 11.1 1.68-4.95c1.68.46 3.22.69 4.62.69 1.4 0 2.53-.06 3.39-.18l.24-1.5-2.49-.24c-1.9-.18-3.247-.61-4.04-1.29-.787-.68-1.18-1.64-1.18-2.88 0-.54.06-1.14.18-1.8.46-2.56 1.293-4.32 2.5-5.28 1.213-.96 3.09-1.44 5.63-1.44 2.54 0 4.78.25 6.72.75l-1.56 4.8c-1.74-.3-3.14-.45-4.2-.45-1.06 0-1.96.05-2.7.15l-.24 1.47 2.01.21c2.04.22 3.49.707 4.35 1.46.86.747 1.29 1.75 1.29 3.01 0 1.28-.28 2.6-.84 3.96-.28.7-.587 1.287-.92 1.76-.327.467-.747.863-1.26 1.19-.507.333-.97.583-1.39.75-.42.173-.95.3-1.59.38-.94.14-2.09.21-3.45.21-2.48 0-4.73-.26-6.75-.78zm33.69-18.42-.87 4.8h-4.14l-2.43 13.95h-5.7l2.43-13.95h-4.11l.87-4.8zm11.34 13.95-.84 4.8h-11.4l3.3-18.75h5.7l-2.46 13.95zm6 4.8h-5.7l3.3-18.75h5.7zm19.38 0h-5.37l-3.06-6.66c-.08-.14-.12-.337-.12-.59 0-.247.02-.53.06-.85h-.24l-1.41 8.1h-5.7l3.3-18.75h5.37l3.06 6.66c.06.14.09.337.09.59 0 .247-.02.53-.06.85h.24l1.44-8.1h5.7zm14.01-5.52.15-.81h-1.44l.81-4.59h6.87l-1.77 10.02c-2.44.9-4.89 1.35-7.35 1.35-2.46 0-4.237-.49-5.33-1.47-1.087-.98-1.63-2.49-1.63-4.53 0-.86.14-2.13.42-3.81.6-3.48 1.66-5.99 3.18-7.53 1.52-1.54 4.04-2.31 7.56-2.31.74 0 1.683.08 2.83.24 1.153.16 2 .34 2.54.54l-1.65 4.59c-1.5-.28-2.877-.42-4.13-.42-1.247 0-2.14.1-2.68.3-.54.2-.86.6-.96 1.2l-1.47 8.49h1.89c.68 0 1.183-.073 1.51-.22.333-.153.55-.5.65-1.04z" fill="#fff"/><g transform="translate(11.232614 -1.966)"><path d="m20.077 16.312c-.015-.062-.031-.124-.05-.184-.002-.007-.005-.013-.007-.019-.185-.581-.596-1-.943-1.478-.26-.357-.518-.735-.777-1.036-1.077-1.249-2.887-2.061-4.748-2.129h-.835c-1.442.078-2.697.497-3.683 1.18-.776.536-1.25 1.164-1.842 1.957-.321.429-.773.968-.936 1.401-.005.013-.009.025-.014.038-.021.061-.039.123-.057.186-.198.724-.165 1.528-.288 2.317v.806c.134 3.446.879 6.705 1.928 9.353.156.393.292.843.49 1.151.294.461 1.152.817 1.726.978.935.262 2.125.369 2.992.633h.174c1.017-.274 2.055-.377 2.992-.633.506-.138 1.127-.364 1.497-.69.227-.201.42-.627.575-1.008 1.078-2.637 1.876-5.794 2.072-9.209v-1.755c-.09-.586-.114-1.259-.266-1.859zm-3.763 7.126c.431.489.463 1.886-.115 2.33 1.029.558.782 2.248.173 2.907-.288.311-.991.701-1.64.834-.432.089-1.002.134-1.583.133-.847-.001-1.716-.1-2.216-.305-.307-.126-.683-.346-.892-.518-.693-.571-1.075-2.486 0-3.051-.51-.46-.591-1.828-.058-2.33-1.62.018-2.766-.638-2.82-2.073-.015-.396.055-.812.115-1.208.082-.54.326-1.006.374-1.641.059-.767.106-1.463.374-2.014.043-.087.094-.175.15-.262.157-.247.351-.484.484-.659-.093.218-.144.441-.16.661-.111 1.536 1.503 2.986 3.21 2.246-.226.981.613 1.461 1.444 1.45h.002c.817-.012 1.625-.498 1.403-1.45 1.686.65 3.289-.578 3.187-2.19-.015-.242-.068-.492-.166-.746.156.205.347.454.522.748.224.376.422.826.486 1.353.036.299.002.629.029.949.058.71.401 1.404.46 2.216.134 1.841-.953 2.633-2.763 2.62z" fill="#aaa"/><g clip-rule="evenodd" fill-rule="evenodd"><path d="m8.66 15.581c-.733 1.735 1.097 3.753 3.05 2.907-.448 1.947 3.297 1.922 2.849 0 1.939.747 3.768-.989 3.021-2.936.355.468.894 1.162 1.008 2.101.036.299.002.629.029.949.058.71.401 1.404.46 2.216.134 1.841-.953 2.633-2.763 2.62.431.489.463 1.886-.115 2.33 1.029.558.782 2.248.173 2.907-.288.311-.991.701-1.64.834-1.06.218-2.956.174-3.799-.172-.307-.126-.683-.346-.892-.518-.693-.571-1.075-2.486 0-3.051-.51-.46-.591-1.828-.058-2.33-1.62.018-2.766-.638-2.82-2.073-.015-.396.055-.812.115-1.208.082-.54.326-1.006.374-1.641.059-.767.106-1.463.374-2.014.163-.333.455-.684.634-.921z" fill="#fff"/><path d="m9.236 19.696c.39-.028 1.027.116 1.697.23.513.089 1.212.245 1.266.662.055.419-.481 1.161-.805 1.295-.749.311-2.497-.016-2.879-.345-.284-.246-.379-.748-.2-1.18.131-.319.484-.63.921-.662z" fill="#141414"/><path d="m16.832 19.696c.108-.005.424.014.576.087.407.195.911.977.461 1.611-.257.361-1.137.528-1.728.576-.922.074-1.439-.05-1.812-.634-.12-.186-.327-.518-.288-.776.064-.42.874-.574 1.208-.634.606-.107 1.047-.203 1.583-.23z" fill="#141414"/><path d="m12.947 21.97c.24-.053.528.012.749.144.36.214.739.592 1.093 1.093.299.424.736 1.033.662 1.497-.08.497-.852.698-1.468.748-.924.074-3.091.087-3.194-.719-.045-.353.398-1.064.576-1.324.37-.544.912-1.291 1.582-1.439z" fill="#141414"/><path d="m11.134 26.775c.58-.123 1.324 0 2.188 0 .665 0 2.323-.307 2.244.518-.056.584-1.7.461-2.388.461-.424 0-.891-.009-1.353-.029-.499-.022-1.056-.037-1.122-.374-.067-.341.142-.514.431-.576z" fill="#141414"/></g></g></svg>

<?xml version="1.0" encoding="utf-8"?>
<svg viewBox="0 0 200 40" xmlns="http://www.w3.org/2000/svg">
  <path d="M 50.06 20.92 L 53.27 10.45 L 59.24 10.45 L 53.15 29.2 L 45.59 29.2 L 45.59 22.3 L 45.26 22.3 L 42.77 29.2 L 35.84 29.2 L 35.84 10.45 L 41.81 10.45 L 41.27 20.92 L 41.45 20.92 L 45.35 10.45 L 49.88 10.45 L 49.88 20.92 L 50.06 20.92 Z M 71.84 22.96 L 73.82 29.2 L 67.55 29.2 L 66.17 23.62 L 64.94 23.62 L 63.98 29.2 L 58.28 29.2 L 61.58 10.45 L 70.58 10.45 L 70.58 10.45 C 74 10.45 75.71 11.98 75.71 15.04 L 75.71 15.04 L 75.71 15.04 C 75.71 16.3 75.52 17.5 75.14 18.64 L 75.14 18.64 L 75.14 18.64 C 74.44 20.8 73.34 22.24 71.84 22.96 L 71.84 22.96 Z M 67.55 15.25 L 66.41 15.25 L 65.75 19 L 67.07 19 L 67.07 19 C 67.75 19 68.263 18.927 68.61 18.78 L 68.61 18.78 L 68.61 18.78 C 68.963 18.627 69.203 18.197 69.33 17.49 L 69.33 17.49 L 69.33 17.49 C 69.463 16.777 69.53 16.34 69.53 16.18 L 69.53 16.18 L 69.53 16.18 C 69.53 15.78 69.377 15.523 69.07 15.41 L 69.07 15.41 L 69.07 15.41 C 68.757 15.303 68.25 15.25 67.55 15.25 L 67.55 15.25 Z M 89.66 17.77 L 88.88 22.12 L 83.18 22.12 L 82.79 24.4 L 89.78 24.4 L 88.94 29.2 L 76.25 29.2 L 79.55 10.45 L 92.09 10.45 L 90.53 15.25 L 84.38 15.25 L 83.96 17.77 L 89.66 17.77 Z M 91.61 28.87 L 91.61 28.87 L 93.29 23.92 L 93.29 23.92 C 94.97 24.38 96.51 24.61 97.91 24.61 L 97.91 24.61 L 97.91 24.61 C 99.31 24.61 100.44 24.55 101.3 24.43 L 101.3 24.43 L 101.54 22.93 L 99.05 22.69 L 99.05 22.69 C 97.15 22.51 95.803 22.08 95.01 21.4 L 95.01 21.4 L 95.01 21.4 C 94.223 20.72 93.83 19.76 93.83 18.52 L 93.83 18.52 L 93.83 18.52 C 93.83 17.98 93.89 17.38 94.01 16.72 L 94.01 16.72 L 94.01 16.72 C 94.47 14.16 95.303 12.4 96.51 11.44 L 96.51 11.44 L 96.51 11.44 C 97.723 10.48 99.6 10 102.14 10 L 102.14 10 L 102.14 10 C 104.68 10 106.92 10.25 108.86 10.75 L 108.86 10.75 L 107.3 15.55 L 107.3 15.55 C 105.56 15.25 104.16 15.1 103.1 15.1 L 103.1 15.1 L 103.1 15.1 C 102.04 15.1 101.14 15.15 100.4 15.25 L 100.4 15.25 L 100.16 16.72 L 102.17 16.93 L 102.17 16.93 C 104.21 17.15 105.66 17.637 106.52 18.39 L 106.52 18.39 L 106.52 18.39 C 107.38 19.137 107.81 20.14 107.81 21.4 L 107.81 21.4 L 107.81 21.4 C 107.81 22.68 107.53 24 106.97 25.36 L 106.97 25.36 L 106.97 25.36 C 106.69 26.06 106.383 26.647 106.05 27.12 L 106.05 27.12 L 106.05 27.12 C 105.723 27.587 105.303 27.983 104.79 28.31 L 104.79 28.31 L 104.79 28.31 C 104.283 28.643 103.82 28.893 103.4 29.06 L 103.4 29.06 L 103.4 29.06 C 102.98 29.233 102.45 29.36 101.81 29.44 L 101.81 29.44 L 101.81 29.44 C 100.87 29.58 99.72 29.65 98.36 29.65 L 98.36 29.65 L 98.36 29.65 C 95.88 29.65 93.63 29.39 91.61 28.87 Z M 125.3 10.45 L 124.43 15.25 L 120.29 15.25 L 117.86 29.2 L 112.16 29.2 L 114.59 15.25 L 110.48 15.25 L 111.35 10.45 L 125.3 10.45 Z M 136.64 24.4 L 135.8 29.2 L 124.4 29.2 L 127.7 10.45 L 133.4 10.45 L 130.94 24.4 L 136.64 24.4 Z M 142.64 29.2 L 136.94 29.2 L 140.24 10.45 L 145.94 10.45 L 142.64 29.2 Z M 162.02 29.2 L 156.65 29.2 L 153.59 22.54 L 153.59 22.54 C 153.51 22.4 153.47 22.203 153.47 21.95 L 153.47 21.95 L 153.47 21.95 C 153.47 21.703 153.49 21.42 153.53 21.1 L 153.53 21.1 L 153.29 21.1 L 151.88 29.2 L 146.18 29.2 L 149.48 10.45 L 154.85 10.45 L 157.91 17.11 L 157.91 17.11 C 157.97 17.25 158 17.447 158 17.7 L 158 17.7 L 158 17.7 C 158 17.947 157.98 18.23 157.94 18.55 L 157.94 18.55 L 158.18 18.55 L 159.62 10.45 L 165.32 10.45 L 162.02 29.2 Z M 176.03 23.68 L 176.03 23.68 L 176.18 22.87 L 174.74 22.87 L 175.55 18.28 L 182.42 18.28 L 180.65 28.3 L 180.65 28.3 C 178.21 29.2 175.76 29.65 173.3 29.65 L 173.3 29.65 L 173.3 29.65 C 170.84 29.65 169.063 29.16 167.97 28.18 L 167.97 28.18 L 167.97 28.18 C 166.883 27.2 166.34 25.69 166.34 23.65 L 166.34 23.65 L 166.34 23.65 C 166.34 22.79 166.48 21.52 166.76 19.84 L 166.76 19.84 L 166.76 19.84 C 167.36 16.36 168.42 13.85 169.94 12.31 L 169.94 12.31 L 169.94 12.31 C 171.46 10.77 173.98 10 177.5 10 L 177.5 10 L 177.5 10 C 178.24 10 179.183 10.08 180.33 10.24 L 180.33 10.24 L 180.33 10.24 C 181.483 10.4 182.33 10.58 182.87 10.78 L 182.87 10.78 L 181.22 15.37 L 181.22 15.37 C 179.72 15.09 178.343 14.95 177.09 14.95 L 177.09 14.95 L 177.09 14.95 C 175.843 14.95 174.95 15.05 174.41 15.25 L 174.41 15.25 L 174.41 15.25 C 173.87 15.45 173.55 15.85 173.45 16.45 L 173.45 16.45 L 171.98 24.94 L 173.87 24.94 L 173.87 24.94 C 174.55 24.94 175.053 24.867 175.38 24.72 L 175.38 24.72 L 175.38 24.72 C 175.713 24.567 175.93 24.22 176.03 23.68 Z" style="white-space: pre; fill: rgb(255, 255, 255);"/>
  <g transform="matrix(1, 0, 0, 1, 11.232614, -1.966)">
    <path d="M 20.077 16.312 C 20.062 16.25 20.046 16.188 20.027 16.128 C 20.025 16.121 20.022 16.115 20.02 16.109 C 19.835 15.528 19.424 15.109 19.077 14.631 C 18.817 14.274 18.559 13.896 18.3 13.595 C 17.223 12.346 15.413 11.534 13.552 11.466 L 12.717 11.466 C 11.275 11.544 10.02 11.963 9.034 12.646 C 8.258 13.182 7.784 13.81 7.192 14.603 C 6.871 15.032 6.419 15.571 6.256 16.004 C 6.251 16.017 6.247 16.029 6.242 16.042 C 6.221 16.103 6.203 16.165 6.185 16.228 C 5.987 16.952 6.02 17.756 5.897 18.545 L 5.897 19.351 C 6.031 22.797 6.776 26.056 7.825 28.704 C 7.981 29.097 8.117 29.547 8.315 29.855 C 8.609 30.316 9.467 30.672 10.041 30.833 C 10.976 31.095 12.166 31.202 13.033 31.466 L 13.207 31.466 C 14.224 31.192 15.262 31.089 16.199 30.833 C 16.705 30.695 17.326 30.469 17.696 30.143 C 17.923 29.942 18.116 29.516 18.271 29.135 C 19.349 26.498 20.147 23.341 20.343 19.926 L 20.343 18.171 C 20.253 17.585 20.229 16.912 20.077 16.312 Z M 16.314 23.438 C 16.745 23.927 16.777 25.324 16.199 25.768 C 17.228 26.326 16.981 28.016 16.372 28.675 C 16.084 28.986 15.381 29.376 14.732 29.509 C 14.3 29.598 13.73 29.643 13.149 29.642 C 12.302 29.641 11.433 29.542 10.933 29.337 C 10.626 29.211 10.25 28.991 10.041 28.819 C 9.348 28.248 8.966 26.333 10.041 25.768 C 9.531 25.308 9.45 23.94 9.983 23.438 C 8.363 23.456 7.217 22.8 7.163 21.365 C 7.148 20.969 7.218 20.553 7.278 20.157 C 7.36 19.617 7.604 19.151 7.652 18.516 C 7.711 17.749 7.758 17.053 8.026 16.502 C 8.069 16.415 8.12 16.327 8.176 16.24 C 8.333 15.993 8.527 15.756 8.66 15.581 C 8.567 15.799 8.516 16.022 8.5 16.242 C 8.389 17.778 10.003 19.228 11.71 18.488 C 11.484 19.469 12.323 19.949 13.154 19.938 C 13.155 19.938 13.155 19.938 13.156 19.938 C 13.973 19.926 14.781 19.44 14.559 18.488 C 16.245 19.138 17.848 17.91 17.746 16.298 C 17.731 16.056 17.678 15.806 17.58 15.552 C 17.736 15.757 17.927 16.006 18.102 16.3 C 18.326 16.676 18.524 17.126 18.588 17.653 C 18.624 17.952 18.59 18.282 18.617 18.602 C 18.675 19.312 19.018 20.006 19.077 20.818 C 19.211 22.659 18.124 23.451 16.314 23.438 Z" style="fill: rgb(170, 170, 170);"/>
    <path fill-rule="evenodd" clip-rule="evenodd" d="M 8.66 15.581 C 7.927 17.316 9.757 19.334 11.71 18.488 C 11.262 20.435 15.007 20.41 14.559 18.488 C 16.498 19.235 18.327 17.499 17.58 15.552 C 17.935 16.02 18.474 16.714 18.588 17.653 C 18.624 17.952 18.59 18.282 18.617 18.602 C 18.675 19.312 19.018 20.006 19.077 20.818 C 19.211 22.659 18.124 23.451 16.314 23.438 C 16.745 23.927 16.777 25.324 16.199 25.768 C 17.228 26.326 16.981 28.016 16.372 28.675 C 16.084 28.986 15.381 29.376 14.732 29.509 C 13.672 29.727 11.776 29.683 10.933 29.337 C 10.626 29.211 10.25 28.991 10.041 28.819 C 9.348 28.248 8.966 26.333 10.041 25.768 C 9.531 25.308 9.45 23.94 9.983 23.438 C 8.363 23.456 7.217 22.8 7.163 21.365 C 7.148 20.969 7.218 20.553 7.278 20.157 C 7.36 19.617 7.604 19.151 7.652 18.516 C 7.711 17.749 7.758 17.053 8.026 16.502 C 8.189 16.169 8.481 15.818 8.66 15.581 Z" style="fill: rgb(255, 255, 255);"/>
    <path fill-rule="evenodd" clip-rule="evenodd" d="M 9.236 19.696 C 9.626 19.668 10.263 19.812 10.933 19.926 C 11.446 20.015 12.145 20.171 12.199 20.588 C 12.254 21.007 11.718 21.749 11.394 21.883 C 10.645 22.194 8.897 21.867 8.515 21.538 C 8.231 21.292 8.136 20.79 8.315 20.358 C 8.446 20.039 8.799 19.728 9.236 19.696 Z" style="fill: rgb(20, 20, 20);"/>
    <path fill-rule="evenodd" clip-rule="evenodd" d="M 16.832 19.696 C 16.94 19.691 17.256 19.71 17.408 19.783 C 17.815 19.978 18.319 20.76 17.869 21.394 C 17.612 21.755 16.732 21.922 16.141 21.97 C 15.219 22.044 14.702 21.92 14.329 21.336 C 14.209 21.15 14.002 20.818 14.041 20.56 C 14.105 20.14 14.915 19.986 15.249 19.926 C 15.855 19.819 16.296 19.723 16.832 19.696 Z" style="fill: rgb(20, 20, 20);"/>
    <path fill-rule="evenodd" clip-rule="evenodd" d="M 12.947 21.97 C 13.187 21.917 13.475 21.982 13.696 22.114 C 14.056 22.328 14.435 22.706 14.789 23.207 C 15.088 23.631 15.525 24.24 15.451 24.704 C 15.371 25.201 14.599 25.402 13.983 25.452 C 13.059 25.526 10.892 25.539 10.789 24.733 C 10.744 24.38 11.187 23.669 11.365 23.409 C 11.735 22.865 12.277 22.118 12.947 21.97 Z" style="fill: rgb(20, 20, 20);"/>
    <path fill-rule="evenodd" clip-rule="evenodd" d="M 11.134 26.775 C 11.714 26.652 12.458 26.775 13.322 26.775 C 13.987 26.775 15.645 26.468 15.566 27.293 C 15.51 27.877 13.866 27.754 13.178 27.754 C 12.754 27.754 12.287 27.745 11.825 27.725 C 11.326 27.703 10.769 27.688 10.703 27.351 C 10.636 27.01 10.845 26.837 11.134 26.775 Z" style="fill: rgb(20, 20, 20);"/>
  </g>
</svg>
